public/images/logo/sqlite.svg

<svg width="224" height="100" viewBox="0 0 224 100" fill="none" xmlns="http://www.w3.org/2000/svg">
<g clip-path="url(#clip0_0_256)">
<path d="M85.1034 49.1421C82.1193 49.1421 79.6926 50.0281 77.8324 51.7978C75.9727 53.5697 75.029 55.8921 75.029 58.7381C75.029 60.2127 75.2631 61.5574 75.7246 62.7895C76.1866 64.0241 76.9054 65.168 77.8714 66.2017C78.8373 67.2355 80.771 68.6408 83.6527 70.4276C87.1893 72.5917 89.5032 74.3482 90.6139 75.7197C91.7252 77.0899 92.2768 78.5259 92.2768 80.0232C92.2768 82.0276 91.6189 83.6281 90.2657 84.8307C88.9108 86.0342 87.0983 86.6333 84.8519 86.6333C82.482 86.6333 80.4175 85.796 78.6448 84.1333C76.8722 82.4675 75.9771 80.2645 75.957 77.5031H74.8545V87.5254H75.957C76.2938 86.5763 76.7593 86.0912 77.3687 86.0912C77.6618 86.0912 78.3487 86.2934 79.4183 86.6724C82.0209 87.6009 84.158 88.0487 85.8379 88.0487C88.7328 88.0487 91.2041 87.0324 93.2629 84.9667C95.3191 82.9017 96.3568 80.4109 96.3568 77.5031C96.3568 75.2487 95.6717 73.2421 94.3269 71.4938C92.9816 69.743 90.3659 67.7066 86.4565 65.368C83.0927 63.3417 80.9093 61.6917 79.9017 60.4052C78.8925 59.1206 78.374 57.6995 78.374 56.1403C78.374 54.4539 78.9922 53.0991 80.211 52.0886C81.4299 51.0776 83.0271 50.5767 85.026 50.5767C87.2746 50.5767 89.1497 51.246 90.6332 52.593C92.1154 53.9421 92.9724 55.8118 93.2244 58.2145H94.3269V49.5302H93.3018C93.1763 49.9728 93.0604 50.2557 92.9536 50.3829C92.8499 50.5092 92.6504 50.5767 92.3543 50.5767C91.9977 50.5767 91.362 50.4263 90.4591 50.1307C88.5254 49.4781 86.7427 49.1421 85.103 49.1421M121.126 49.1421C117.49 49.1421 114.189 50.0017 111.207 51.7206C108.22 53.4364 105.855 55.8193 104.11 58.8544C102.366 61.8895 101.5 65.1123 101.5 68.5474C101.5 73.1614 103.007 77.2728 106.044 80.8763C109.083 84.4772 112.725 86.721 116.95 87.5838C117.916 88.0881 119.298 89.3908 121.107 91.4995C123.146 93.8789 124.871 95.5952 126.289 96.6171C127.676 97.6191 129.218 98.3855 130.852 98.8855C132.471 99.3794 134.221 99.6224 136.112 99.6224C138.403 99.6224 140.454 99.2228 142.261 98.4009L141.855 97.3925C140.806 97.7719 139.688 97.9548 138.51 97.9548C136.911 97.9548 135.295 97.4263 133.676 96.3653C132.058 95.3013 130.036 93.2719 127.624 90.2781C126.49 88.8438 125.707 87.9386 125.264 87.5838C129.888 86.6785 133.689 84.4324 136.654 80.8373C139.617 77.2443 141.101 73.1434 141.101 68.5469C141.101 63.0899 139.164 58.5031 135.319 54.764C131.471 51.0241 126.74 49.1421 121.127 49.1421M143.615 49.1421L143.673 50.3245C146.093 50.3245 147.45 51.0395 147.753 52.4763C147.866 52.9908 147.917 53.9399 147.926 55.3066L147.907 81.4579C147.887 83.4111 147.61 84.6582 147.076 85.1991C146.541 85.7364 145.638 86.0732 144.33 86.207L144.272 87.3899H168.404L169.023 81.4579H167.92C167.605 83.0737 166.884 84.2316 165.736 84.889C164.584 85.5513 162.547 85.8776 159.606 85.8776H157.324C154.677 85.8776 153.146 84.9184 152.741 82.989C152.658 82.6074 152.629 82.1982 152.625 81.7487L152.722 55.3066C152.722 53.3566 152.967 52.05 153.476 51.4101C153.99 50.7728 154.918 50.4162 156.26 50.3245L156.203 49.1421H143.615ZM121.513 50.5763C125.614 50.5763 128.962 52.196 131.549 55.4618C134.134 58.7289 135.416 63.2066 135.416 68.8767C135.416 74.2495 134.116 78.5513 131.51 81.7873C128.904 85.0224 125.436 86.6338 121.127 86.6338C116.986 86.6338 113.629 84.9719 111.052 81.6324C108.478 78.2925 107.205 73.9566 107.205 68.6245C107.205 63.1456 108.494 58.7596 111.091 55.4811C113.687 52.2066 117.163 50.5767 121.513 50.5767M177.009 56.1991C176.42 56.1991 175.972 56.3982 175.636 56.8C175.293 57.2 175.187 57.6846 175.307 58.2732C175.423 58.8443 175.745 59.3443 176.255 59.7658C176.762 60.1868 177.31 60.4057 177.898 60.4057C178.468 60.4057 178.902 60.1868 179.213 59.7658C179.525 59.3447 179.62 58.8443 179.503 58.2732C179.383 57.6846 179.073 57.2 178.594 56.7995C178.11 56.3982 177.578 56.1987 177.009 56.1987M192.922 60.2114C191.922 64.0684 189.755 66.1557 186.426 66.4921L186.464 67.5974H190.351L190.274 80.6631C190.28 82.8969 190.348 84.3842 190.505 85.1412C190.889 86.9531 192.069 87.8745 194.044 87.8745C196.902 87.874 199.899 86.1292 203.035 82.6403L202.088 81.8263C199.824 84.1237 197.823 85.2767 196.075 85.2767C195 85.2767 194.334 84.6574 194.083 83.4351C194.014 83.1381 193.986 82.7912 193.986 82.3881L194.025 67.5974H199.961L199.903 65.8329H194.044V60.2114H192.922ZM215.875 65.1351C212.554 65.1351 209.854 66.7513 207.754 69.9623C205.665 73.1785 205.018 76.7421 205.839 80.6631C206.323 82.9596 207.285 84.7395 208.759 85.9938C210.23 87.2482 212.096 87.8745 214.328 87.8745C216.405 87.8745 219.298 87.3469 220.515 86.2846C221.736 85.2232 222.86 83.5031 223.899 81.1478L223.068 80.275C221.411 83.3311 218.068 84.8697 215.546 84.8697C212.079 84.8697 209.956 82.9627 209.165 79.1702C209.059 78.6579 208.981 78.1402 208.933 77.6193C213.057 76.9649 216.183 75.8057 218.292 74.1302C220.399 72.4535 222.516 70.6763 222.121 68.7991C221.885 67.6833 221.308 66.8061 220.419 66.1434C219.518 65.4807 217.181 65.1351 215.875 65.1351ZM179.581 65.271L172.426 66.9188V68.1982L174.901 67.8881C176.1 67.8881 176.806 68.432 177.028 69.5162C177.103 69.8789 177.151 70.389 177.164 71.0285L177.086 82.7566C177.066 84.3794 176.887 85.3228 176.526 85.6061C176.161 85.8903 175.201 86.0326 173.644 86.0329L173.606 87.1377H184.956L184.937 86.0324C183.36 86.0324 182.337 85.9079 181.882 85.664C181.434 85.4228 181.125 84.982 180.992 84.3074C180.889 83.8215 180.844 82.9838 180.837 81.8263L180.876 65.271H179.581ZM214.057 67.4421C214.748 67.4421 215.415 67.7096 216.087 68.2368C216.75 68.7623 217.154 69.3465 217.286 69.9816C217.934 73.1 215.176 75.2553 208.972 76.4561C208.795 74.1829 209.188 72.1184 210.19 70.2531C211.185 68.389 212.48 67.4421 214.057 67.4421Z" fill="#003B57"/>
<path d="M69.0778 4.3649H7.50723C3.38045 4.3649 0.00439453 7.74999 0.00439453 11.8868V79.9605C0.00439453 84.0974 3.38045 87.4824 7.50723 87.4824H48.0589C47.5986 67.2535 54.489 27.9956 69.0778 4.3649Z" fill="#0F80CC"/>
<path d="M66.8408 6.5592H7.50717C4.57691 6.5592 2.19263 8.94912 2.19263 11.8873V74.9939C15.6304 69.8237 35.7988 65.3623 49.744 65.5649C52.5465 50.8746 60.7826 22.0851 66.8408 6.5592Z" fill="url(#paint0_linear_0_256)"/>
<path d="M83.439 2.13684C79.2221 -1.63289 74.1162 -0.118859 69.0778 4.36491C68.3297 5.0307 67.5833 5.76974 66.8409 6.55921C58.2207 15.7272 50.2192 32.7083 47.7334 45.6776C48.702 47.6465 49.4584 50.1588 49.9562 52.0781C50.084 52.5702 50.199 53.0325 50.2913 53.4254C50.5101 54.3561 50.6278 54.9592 50.6278 54.9592C50.6278 54.9592 50.5503 54.6662 50.2332 53.7443C50.1728 53.5675 50.1054 53.3746 50.0258 53.1474C49.9842 53.0363 49.9399 52.9263 49.8928 52.8175C49.3306 51.507 47.7754 48.7412 47.0907 47.5368C46.5481 49.1326 46.036 50.7386 45.5547 52.3539C47.5308 55.9789 48.7352 62.1912 48.7352 62.1912C48.7352 62.1912 48.6307 61.7886 48.1341 60.3833C47.6931 59.1408 45.4974 55.2833 44.9772 54.3816C44.0874 57.675 43.7339 59.8983 44.0528 60.4395C44.6719 61.4882 45.2612 63.2982 45.7791 65.2996C46.9485 69.8083 47.7609 75.2978 47.7609 75.2978C47.7609 75.2978 47.7872 75.6618 47.8318 76.2215C47.6691 80.0079 47.7666 83.9338 48.0593 87.482C48.4465 92.1794 49.1758 96.2145 50.1054 98.3741L50.7367 98.0294C49.3718 93.7746 48.817 88.1987 49.0598 81.768C49.4273 71.939 51.6834 60.0851 55.8522 47.7303C62.8957 29.0798 72.6673 14.1158 81.6108 6.9693C73.4591 14.35 62.4267 38.2399 59.1241 47.0864C55.4261 56.9934 52.8056 66.2899 51.2262 75.1969C53.9513 66.8465 62.7618 63.2575 62.7618 63.2575C62.7618 63.2575 67.0828 57.9145 72.1327 50.2811C69.1079 50.9728 64.1408 52.157 62.477 52.8579C60.0227 53.8899 59.3617 54.2421 59.3617 54.2421C59.3617 54.2421 67.3108 49.3886 74.1311 47.1912C83.5108 32.3807 93.7299 11.3404 83.439 2.13684Z" fill="#003B57"/>
</g>
<defs>
<linearGradient id="paint0_linear_0_256" x1="3729.94" y1="146.576" x2="3729.94" y2="6469.46" gradientUnits="userSpaceOnUse">
<stop stop-color="#97D9F6"/>
<stop offset="0.92024" stop-color="#0F80CC"/>
<stop offset="1" stop-color="#0F80CC"/>
</linearGradient>
<clipPath id="clip0_0_256">
<rect width="224" height="100" fill="white"/>
</clipPath>
</defs>
</svg>

<svg xmlns="http://www.w3.org/2000/svg" width="224" height="100" fill="none"><g clip-path="url(#a)"><path fill="#003B57" d="M85.103 49.142c-2.984 0-5.41.886-7.27 2.656-1.86 1.772-2.804 4.094-2.804 6.94 0 1.475.234 2.82.696 4.051.462 1.235 1.18 2.379 2.146 3.413.966 1.034 2.9 2.439 5.782 4.226 3.536 2.164 5.85 3.92 6.96 5.292 1.112 1.37 1.664 2.806 1.664 4.303 0 2.005-.658 3.605-2.011 4.808-1.355 1.203-3.168 1.802-5.414 1.802-2.37 0-4.434-.837-6.207-2.5-1.773-1.665-2.668-3.868-2.688-6.63h-1.102v10.022h1.102c.337-.949.802-1.434 1.412-1.434.293 0 .98.202 2.05.581 2.602.929 4.739 1.377 6.419 1.377 2.895 0 5.366-1.017 7.425-3.082 2.056-2.065 3.094-4.556 3.094-7.464 0-2.254-.685-4.26-2.03-6.01-1.345-1.75-3.961-3.786-7.87-6.125-3.364-2.026-5.548-3.676-6.555-4.963-1.01-1.284-1.528-2.706-1.528-4.265 0-1.686.618-3.04 1.837-4.051 1.219-1.011 2.816-1.512 4.815-1.512 2.249 0 4.124.669 5.607 2.016 1.482 1.35 2.34 3.219 2.591 5.621h1.103V49.53h-1.025c-.126.443-.242.726-.348.853-.104.126-.304.194-.6.194-.356 0-.992-.15-1.895-.446-1.934-.653-3.716-.989-5.356-.989m36.023 0c-3.636 0-6.937.86-9.919 2.579-2.987 1.715-5.352 4.098-7.097 7.133-1.744 3.035-2.61 6.258-2.61 9.693 0 4.614 1.507 8.726 4.544 12.33 3.039 3.6 6.681 5.844 10.906 6.707.966.504 2.348 1.807 4.157 3.915 2.039 2.38 3.764 4.096 5.182 5.118a15.576 15.576 0 0 0 4.563 2.268c1.619.494 3.369.737 5.26.737 2.291 0 4.342-.4 6.149-1.221l-.406-1.008a9.768 9.768 0 0 1-3.345.562c-1.599 0-3.215-.529-4.834-1.59-1.618-1.064-3.64-3.093-6.052-6.087-1.134-1.434-1.917-2.34-2.36-2.694 4.624-.906 8.425-3.152 11.39-6.747 2.963-3.593 4.447-7.694 4.447-12.29 0-5.457-1.937-10.044-5.782-13.783-3.848-3.74-8.579-5.622-14.192-5.622m22.488 0 .058 1.182c2.42 0 3.777.715 4.08 2.152.113.515.164 1.464.173 2.83l-.019 26.152c-.02 1.953-.297 3.2-.831 3.741-.535.537-1.438.874-2.746 1.008l-.058 1.183h24.132l.619-5.932h-1.103c-.315 1.616-1.036 2.774-2.184 3.431-1.152.662-3.189.989-6.13.989h-2.282c-2.647 0-4.178-.96-4.583-2.889a6.095 6.095 0 0 1-.116-1.24l.097-26.442c0-1.95.245-3.257.754-3.897.514-.637 1.442-.994 2.784-1.085l-.057-1.183h-12.588Zm-22.102 1.434c4.101 0 7.449 1.62 10.036 4.886 2.585 3.267 3.867 7.745 3.867 13.415 0 5.373-1.3 9.674-3.906 12.91-2.606 3.235-6.074 4.847-10.383 4.847-4.141 0-7.498-1.662-10.075-5.002-2.574-3.34-3.847-7.675-3.847-13.008 0-5.478 1.289-9.864 3.886-13.143 2.596-3.274 6.072-4.904 10.422-4.904m55.496 5.622c-.589 0-1.037.2-1.373.601-.343.4-.449.885-.329 1.473.116.571.438 1.071.948 1.493.507.42 1.055.64 1.643.64.57 0 1.004-.22 1.315-.64.312-.421.407-.922.29-1.493-.12-.588-.43-1.073-.909-1.474-.484-.4-1.016-.6-1.585-.6m15.913 4.012c-1 3.857-3.167 5.945-6.496 6.281l.038 1.105h3.887l-.077 13.066c.006 2.234.074 3.721.231 4.478.384 1.812 1.564 2.733 3.539 2.733 2.858 0 5.855-1.745 8.991-5.234l-.947-.814c-2.264 2.298-4.265 3.45-6.013 3.45-1.075 0-1.741-.619-1.992-1.84a4.686 4.686 0 0 1-.097-1.048l.039-14.79h5.936l-.058-1.765h-5.859V60.21h-1.122Zm22.953 4.924c-3.321 0-6.021 1.616-8.121 4.827-2.089 3.216-2.736 6.78-1.915 10.701.484 2.297 1.446 4.077 2.92 5.33 1.471 1.255 3.337 1.882 5.569 1.882 2.077 0 4.97-.528 6.187-1.59 1.221-1.062 2.345-2.782 3.384-5.137l-.831-.873c-1.657 3.056-5 4.595-7.522 4.595-3.467 0-5.59-1.907-6.381-5.7a13.991 13.991 0 0 1-.232-1.55c4.124-.655 7.25-1.814 9.359-3.49 2.107-1.676 4.224-3.454 3.829-5.33a4.324 4.324 0 0 0-1.702-2.657c-.901-.662-3.238-1.008-4.544-1.008Zm-36.294.136-7.155 1.648v1.28l2.475-.31c1.199 0 1.905.543 2.127 1.627.075.363.123.873.136 1.512l-.078 11.729c-.02 1.622-.199 2.566-.56 2.85-.365.283-1.325.426-2.882.426l-.038 1.105h11.35l-.019-1.106c-1.577 0-2.6-.124-3.055-.368-.448-.241-.757-.682-.89-1.357-.103-.486-.148-1.323-.155-2.48l.039-16.556h-1.295Zm34.476 2.171c.691 0 1.358.268 2.03.795.663.525 1.067 1.11 1.199 1.745.648 3.118-2.11 5.273-8.314 6.474-.177-2.273.216-4.338 1.218-6.203.995-1.864 2.29-2.81 3.867-2.81Z"/><path fill="#0F80CC" d="M69.078 4.365H7.508C3.38 4.365.003 7.75.003 11.887V79.96c0 4.137 3.376 7.522 7.503 7.522H48.06c-.46-20.228 6.43-59.486 21.019-83.117Z"/><path fill="url(#b)" d="M66.84 6.56H7.508c-2.93 0-5.314 2.39-5.314 5.327v63.107c13.437-5.17 33.606-9.632 47.551-9.43 2.803-14.69 11.039-43.479 17.097-59.005Z"/><path fill="#003B57" d="M83.439 2.137c-4.217-3.77-9.323-2.256-14.361 2.228a35.47 35.47 0 0 0-2.237 2.194c-8.62 9.168-16.622 26.15-19.108 39.119.969 1.969 1.725 4.48 2.223 6.4.128.492.243.954.335 1.347.22.931.337 1.534.337 1.534s-.078-.293-.395-1.215l-.207-.597a7.076 7.076 0 0 0-.133-.33c-.562-1.31-2.118-4.076-2.802-5.28a132.48 132.48 0 0 0-1.536 4.817c1.976 3.625 3.18 9.837 3.18 9.837s-.104-.402-.6-1.808c-.442-1.242-2.638-5.1-3.158-6.001-.89 3.293-1.243 5.516-.924 6.058.619 1.048 1.208 2.858 1.726 4.86 1.17 4.508 1.982 9.998 1.982 9.998s.026.364.07.924a91.962 91.962 0 0 0 .228 11.26c.388 4.697 1.117 8.733 2.046 10.892l.632-.345c-1.365-4.254-1.92-9.83-1.677-16.261.367-9.829 2.623-21.683 6.792-34.038 7.044-18.65 16.815-33.614 25.759-40.76-8.152 7.38-19.184 31.27-22.487 40.116-3.698 9.907-6.318 19.204-7.898 28.11 2.725-8.35 11.536-11.938 11.536-11.938s4.32-5.344 9.37-12.977c-3.024.692-7.991 1.876-9.655 2.577-2.454 1.032-3.115 1.384-3.115 1.384s7.949-4.853 14.77-7.05C83.51 32.38 93.73 11.34 83.438 2.136Z"/></g><defs><linearGradient id="b" x1="3729.94" x2="3729.94" y1="146.576" y2="6469.46" gradientUnits="userSpaceOnUse"><stop stop-color="#97D9F6"/><stop offset=".92" stop-color="#0F80CC"/><stop offset="1" stop-color="#0F80CC"/></linearGradient><clipPath id="a"><path fill="#fff" d="M0 0h224v100H0z"/></clipPath></defs></svg>
